!!!!SEGMENT: pl-wtm--r-2309--002_troschel-wilhelm--msza-gloria.krn
!!!cenid: 18xx:2269
!!!COM: Troschel, Wilhelm
!!!COM-rismid: pe30024099
!!!CDT: 1823/08/23-1887/03/02
!!!CNT: Polish
!!!OPR: Msza
!!!OTL: Gloria
!!!OMV: 002
!!!PDT: 1853
!!!AGN: Sacred; Mass
!!!SMS-siglum: PL-Wtm
!!!SMS-shelfmark: R 2309
!!!SMS-shelfwork: 001-002 M
!!!SMS-variant:
!!!SMS-altvar:
!!!NIFC-rismid: 1001114147
!!!URL-scan: http://repozytorium.nifc.pl/skany/pl-wtm-nut--r2309
!!!ONB-nifc: UWAGA: części Mszy: 1. Kyrie, 2. Gloria, 3. Credo, 4. Benedictus, 5. Agnus Dei
!!!OMD: Allegro moderato
**kern	**kern	**dynam
*part1	*part1	*part1
*staff2	*staff1	*
*I"[fp.]	*I"[fp.]	*
*clefF4	*clefG2	*
*k[f#]	*k[f#]	*
*G:	*G:	*
*M4/4	*M4/4	*
*met(c)	*met(c)	*
!!LO:TX:t=P:problem:all\right or left:global
=1	=1	=1
*^	*^	*
2G/	2G\	2g/	2g\	ff
8G/	8G\	8g/	8g\	.
8G/	8G\	8g/	8g\	.
8B/	8B\	8b/	8b\	.
8c/	8c\	8cc/	8cc\	.
=2	=2	=2	=2	=2
*	*	*2/left	*2\right	*
2d/	2d\	2dd/	2dd\	.
2d/	2d\	2dd/	2dd\	.
=3	=3	=3	=3	=3
*	*	*2/right	*	*
2B/	2G\	2dd/	2g\	.
4B/	4G\	4g/ 4dd	4ryy	.
8B/	8G\	8g/ 8dd	8ryy	.
8B/	8G\	8g/ 8dd	8ryy	.
=4	=4	=4	=4	=4
1c	1C	1ee	1g	.
=5	=5	=5	=5	=5
*	*2\right	*	*	*
2B/	2GG\ 2G	2dd/	2g\	.
2r	2ryy	2r	2ryy	.
=6	=6	=6	=6	=6
2A/	2D\	2dd/	2f#\	.
2A/	2D\	2cc/	2f#\	.
=7	=7	=7	=7	=7
4.A/	4.D\	4.cc/	4.f#\	.
8A/	8D\	8cc/	8f#\	.
4B/	4G\	4b/	4g\	.
4rB	4rD	4rdd	4rd	.
*v	*v	*	*	*
=8	=8	=8	=8
4D\ 4d	4a/	4f#\	.
4D\ 4d	4b/	4g\	.
4D\ 4d	4cc/	4a\	.
4D\ 4d	4dd/	4f#\	.
!!LO:LB:g=original
=9	=9	=9	=9
*^	*	*	*
4d/	4G\	4cc/	4a\	.
4d/	4G\	4b/	4g\	.
4r	4ryy	4r	4ryy	.
4G\ 4d	4ryy	4b/	4g\	.
=10	=10	=10	=10	=10
2B\ 2d#X	2ryy	2b/	2f#\	.
2e/	2B\	2a#X/	2g\	.
*v	*v	*	*	*
=11	=11	=11	=11
2.B\ 2.d#X	2.b/	2.f#\	.
4B\ 4d#	4b/	4f#\	.
=12	=12	=12	=12
4F#\ 4e	4b/	4f#\	.
4F#\ 4e	4a#X/	4f#\	.
4F#\ 4e	4g#X/	4f#\	.
4F#\ 4e	4a#/	4f#\	.
=13	=13	=13	=13
*^	*	*	*
2B\ 2d#X	2ryy	2f#/ 2b	2f#\	.
4dn/	4A\	4cc/	4f#\	.
4d/	4G\	4b/	4g\	.
*v	*v	*	*	*
=14	=14	=14	=14
4c\ 4e	4ee/	4g\	.
4B\ 4e	4dd/	4g#X\	.
4A\ 4e	4cc/	4a\	.
4c\ 4e	4a/	4a\	.
=15	=15	=15	=15
*^	*	*	*
4.d/	4.d\	4.b/	4.g\	.
8d/	8d\	8b/	8g\	.
4D\ 4d	4ryy	4cc/	4f#\	.
4D\ 4c	4ryy	4a/	4f#\	.
=16	=16	=16	=16	=16
4B/	4G\	4g/	4g\	.
!	!	!	!	!LO:DY:b=2:t=p.
4G/	4r	4rb	4rd	p
4A/	2r	2rb	2rg	.
4B/	.	.	.	.
!!LO:LB:g=original
=17	=17	=17	=17	=17
2c/	1r	1rdd	2d/	.
2c/	.	.	4e/	.
.	.	.	4f#/	.
=18	=18	=18	=18	=18
2B/	2r	2g/	2g\	.
4A/	4r	4a/	4f#\	.
4G/	4G\	4b/	4g\	.
=19	=19	=19	=19	=19
4.A/	4.D\	4.cc/	4.g\	.
8A/	8D\	8cc/	8f#\	.
4A/	4D\	4dd/	4e\	.
4d/	4D\	4cc/	4f#\	.
=20	=20	=20	=20	=20
4d/	4G\	4b/	4g\	.
4rA	4GG\	4rdd	4r	.
2rA	4AA\	2rdd	2rf	.
.	4BB\	.	.	.
=21	=21	=21	=21	=21
1r	2C\	1r	2d\	.
.	2C\	.	4e\	.
.	.	.	4f#\	.
=22	=22	=22	=22	=22
!	!	!	!LO:TX:t=P:problem:zbędna cauda/	!
2G/	2BB\	2r	2g\	.
4F#/	4AA\	4r	4a\	.
4G/	4GG\	4b/	4g\	.
=23	=23	=23	=23	=23
2A/	4.D\	4.cc/	4.g\	.
.	8D\	8cc/	8f#\	.
2A/	4D\	4dd/	4e\	.
.	4D\	4cc/	4f#\	.
=24	=24	=24	=24	=24
4B/	4G\	4b/	4g\	.
4rD	4rB	4rdd	4rd	.
!	!	!	!	!LO:DY:rj
4G/	4G\	4g/	4g\	ff
4G/	4G\	4g/	4g\	.
!!LO:LB:g=original
=25	=25	=25	=25	=25
2c/	2C\	2ee-X/	2g\	.
2c/	2Fn\	2cc/	2a\	.
=26	=26	=26	=26	=26
2B-X/	2BB-X\	2dd/	2fn\	.
2B-X/	2E-X\	2b-X/	2g\	.
=27	=27	=27	=27	=27
2A/	2AA\	2cc/	2en\	.
2A/	2D\	2a/	2f#X\	.
=28	=28	=28	=28	=28
4G/	4G\	4b-X/	4g\	.
4d/	4F#\	4bn/	4g\	.
4c/	4E\	4cc/	4g\	.
4B-X/	4E-X\	4cc#X/	4g\	.
=29	=29	=29	=29	=29
2Bn/	2D\	2dd/	2g\	.
2d/	2D\	2b/	2g\	.
=30	=30	=30	=30	=30
2d/	2D\	2a/	2g\	.
2d/	2D\	2a/	2f#\	.
=31	=31	=31	=31	=31
1e	1C#X;<	1b-X;>	1g	.
=32	=32	=32	=32	=32
2d/	2D\	2bn/	2g\	.
4d/	4D\	4cc/	4a\	.
4d/	4D\	4b/	4g\	.
=33	=33	=33	=33	=33
2.d/	2.D\	2.a/	4g\	.
.	.	.	4f#\	.
.	.	.	4e\	.
4c/	4D\	4a/	4f#\	.
!!LO:LB:g=original
=34	=34	=34	=34	=34
*	*2\left	*	*2\left	*
2B/	2GG\ 2G	2g/	2g\	.
*	*	*	*2\right	*
!	!	!LO:TX:a:t=Organ	!	!
[2G\	2ryy	2b/	2d\	p
*v	*v	*	*	*
=35	=35	=35	=35
1G]	2c#X/ 2a	2ryy	.
.	2g/	2B\	.
=36	=36	=36	=36
[1A	2f#/	[1d	.
!	!LO:TX:b:t=rall&colon;	!	!
.	2fn/	.	.
=37	=37	=37	=37
*^	*	*	*
1A]	1AA	2e/	2d\]	.
.	.	2a/	2c#X\	.
=38	=38	=38	=38	=38
*	*2\right	*	*	*
!	!	!LO:TX:b:i:t=dolce	!	!
!	!	!LO:TX:a:i:t=Moderato	!	!
!	!	!LO:TX:a:i:t=Quartett	!	!
2A/	2D\	2f#/	2d\	.
4A/	4D\	4a/	4f#\	.
4G#X/	4D\	4b/	4e#X\	.
=39	=39	=39	=39	=39
2A/	2D\	2a/	2f#\	.
2A/	2D\	2f#/	2d\	.
=40	=40	=40	=40	=40
2d/	2D\	2dd/	2f#\	.
2d/	2D\	2a/	2f#\	.
=41	=41	=41	=41	=41
2d/	2G\	2a#X/	2f#\	.
2d/	2G\	2b/	2g\	.
=42	=42	=42	=42	=42
2c#X/	2A\	2a/	2g\	.
4d/	2A\	4b/	2g\	.
4c#/	.	4a/	.	.
=43	=43	=43	=43	=43
2d/	2D\	2dd/	2f#\	.
2d/	2D\	2a/	2f#\	.
!!LO:PB:g=original
=44	=44	=44	=44	=44
2d/	2E\	4cc#X/	2g#X\	.
.	.	4b/	.	.
2d/	2E\	4g#/	2e\	.
.	.	4e/	.	.
*v	*v	*	*	*
=45	=45	=45	=45
2A\ 2c#X	2a/	2e\	.
2A\ 2c#	2gn/	2e\	.
=46	=46	=46	=46
*^	*	*	*
2d/	2D\	2f#/	2d\	.
4A/	4D\	4a/	4f#\	.
4G#X/	4D\	4b/	4e#X\	.
=47	=47	=47	=47	=47
2A/	2D\	2a/	2f#\	.
2A/	2D\	2f#/	2d\	.
=48	=48	=48	=48	=48
2d/	2D\	2dd/	2f#\	.
4d/	4D\	4a/	4f#\	.
4d/	4D\	4a#X/	4f#\	.
=49	=49	=49	=49	=49
2d/	2G\	2cc/	2an\	.
2G\ 2d	2ryy	2b/	2g\	.
=50	=50	=50	=50	=50
4G/	4G\	4ee/	4cc#X\	.
4A/	4A\	4dd/	4b\	.
4B/	4B\	4cc#/	4a\	.
4c#X/	4c#\	4b/	4g\	.
=51	=51	=51	=51	=51
2d/	2d\	2a/	2f#\	.
2G/	2G\	4a/	4f#\	.
.	.	4g/	4e\	.
=52	=52	=52	=52	=52
1A	2.A\	2f#/	2d\	.
.	.	2c#X/ 2e	2ryy	.
.	4G\	.	.	.
=53	=53	=53	=53	=53
1A#X	1F#	1f#	1c#X	.
!!LO:LB:g=original
=54	=54	=54	=54	=54
2.A/	1G	2g/	2.c#X\	.
.	.	4e/	.	.
4c#X/	.	4g/	4e\	.
*	*	*v	*v	*
=55	=55	=55	=55
2d/	2D\	2g/ 2b	.
2d/	2D\	2f#/ 2a	.
=56	=56	=56	=56
*	*	*^	*
2d/	2G\	2b/	2g\	.
4d/	4G\	4a#X/	4f#\	.
4d/	4G\	4b/	4g\	.
=57	=57	=57	=57	=57
2d/	2F#\	2dd/	2a\	.
2d/	2F#\	2a/	2a\	.
=58	=58	=58	=58	=58
2A\ 2d#X	2ryy	4ccn/	2f#\	.
.	.	4b/	.	.
2e/	2G#X\	2ee/	2b\	.
*v	*v	*	*	*
=59	=59	=59	=59
2Gn\ 2c#X	4b-X/	2e\	.
.	4a/	.	.
2F#\ 2d	2dd/	2a\	.
=60	=60	=60	=60
*^	*	*	*
2.d/	2G\	4cc#X/	4a\	.
.	.	4b/	4g\	.
.	2A\	2a/	4f#\	.
4c#X/	.	.	4g\	.
=61	=61	=61	=61	=61
2D\ 2d	2ryy	2a/	2f#\	.
!	!	!LO:TX:a:t=Organ	!	!
[2D\ 2F#	2A/	2d/	2d\	.
=62	=62	=62	=62	=62
2G/	1D]	2c#X/ 2e	2ryy	.
2A/	.	2f#X/	2cn\	.
!!LO:LB:g=original
=63	=63	=63	=63	=63
!	!	!LO:TX:a:i:t=Tempo primo	!	!LO:DY:rj
2G/	2G\	2g/	2g\	ff
8G/	8G\	8g/	8g\	.
8G/	8G\	8g/	8g\	.
8B/	8B\	8b/	8b\	.
8c/	8c\	8cc/	8cc\	.
=64	=64	=64	=64	=64
*	*2\left	*	*2\left	*
2d/	2d\	2dd/	2dd\	.
2d/	2d\	2dd/	2dd\	.
=65	=65	=65	=65	=65
4.B/	4.G\	4.dd/	4.g\	.
8B/	8G\	8dd/	8g\	.
8B/	8G\	8dd/	8g\	.
8B/	8G\	8dd/	8g\	.
8B/	8G\	8dd/	8g\	.
8B/	8G\	8dd/	8g\	.
=66	=66	=66	=66	=66
1c	1C	1ee	1g	.
=67	=67	=67	=67	=67
*	*2\right	*	*2\right	*
2B/	2G\	2dd/	2g\	.
2r	2r	2r	2r	.
=68	=68	=68	=68	=68
2A/	2D\	2dd/	2f#\	.
2A/	2D\	2cc/	2f#\	.
=69	=69	=69	=69	=69
4A/	4D\	4cc/	4f#\	.
4B/	4G\	4b/	4g\	.
4r	4ryy	4r	4ryy	.
4d/	4G\	4b/	4g\	.
=70	=70	=70	=70	=70
4d/	4D\	4a/	4f#\	.
8d/	8D\	8b/	8g\	.
8d/	8D\	8b/	8g\	.
4d/	4D\	4cc/	4a\	.
4d/	4D\	4dd/	4f#\	.
!!LO:LB:g=original
=71	=71	=71	=71	=71
4d/	4G\	4cc/	4a\	.
4d/	4G\	4b/	4g\	.
4rB	4rD	4rdd	4rd	.
8d/	8G\	8b/	8g\	.
8d/	8G\	8b/	8g\	.
=72	=72	=72	=72	=72
4.d#X/	4.B\	4.b/	4.f#\	.
8d#/	8B\	8b/	8f#\	.
2e/	2B\	2g/ 2a#X	2ryy	.
=73	=73	=73	=73	=73
2.d#X/	2.B\	2.b/	2.f#\	.
4d#/	4B\	4b/	4f#\	.
=74	=74	=74	=74	=74
4e/	4F#\	4b/	4f#\	.
8e/	8F#\	8a#X/	8f#\	.
8e/	8F#\	8a#/	8f#\	.
4e/	4F#\	4g#X/	4f#\	.
4e/	4F#\	4a#/	4f#\	.
=75	=75	=75	=75	=75
2d#X/	2B\	2b/	2.f#\	.
4dn/	4A\	4cc/	.	.
4d/	4G\	4b/	4g\	.
=76	=76	=76	=76	=76
4e/	4c\	4ee/	4g\	.
4e/	4B\	4dd/	4g#X\	.
4e/	4A\	4cc/	4a\	.
4c\ 4e	4ryy	4a/	4a\	.
=77	=77	=77	=77	=77
2d/	1D	2b/	2g\	.
4.d/	.	4.cc/	2f#\	.
8c/	.	8a/	.	.
=78	=78	=78	=78	=78
2G\ 2B	2ryy	2g/	2g\	.
4.d/	4.G\	4.b/	4.fn\	.
8d/	8G\	8b/	8f\	.
!!LO:LB:g=original
=79	=79	=79	=79	=79
2c/	2C\	2cc/	2e\	.
4.c/	4.C\	4.g/	4.e\	.
8c/	8C\	8g/	8e\	.
=80	=80	=80	=80	=80
4d/	4G\	4b/	4g\	.
4d#X/	4G\	4b/	4g\	.
4e/	4G\	4cc/	4g\	.
4dn/	4G\	4b/	4g\	.
=81	=81	=81	=81	=81
2c#X/	2E\	2a/	2g\	.
4d/	2D\	4b/	2f#\	.
4cn/	.	4a/	.	.
=82	=82	=82	=82	=82
2G\ 2B	2ryy	2g/	2g\	.
4.d/	4.G\	4.b/	4.fn\	.
8d/	8G\	8b/	8f\	.
=83	=83	=83	=83	=83
2C\ 2c	2ryy	2cc/	2e\	.
4c/	4C\	4g/	4e-X\	.
8c/	8C\	8g/	8e-\	.
8c/	8C\	8g/	8e-\	.
=84	=84	=84	=84	=84
4d/	4G\	4b/	4g\	.
4d#X/	4F#\	4b/	4a\	.
4e/	4E\	4b/	4g\	.
4dn\ 4fn	4ryy	4b/	4g#X\	.
=85	=85	=85	=85	=85
4c\ 4e	4ryy	4a/	4a\	.
4c/	4A\	4cc/	4a\	.
4d/	4d\	4b/	4g\	.
4c/	4D\	4a/	4f#\	.
!!LO:PB:g=original
=86	=86	=86	=86	=86
4B/	4G\	4g/	4g\	.
4d/	4d\	4b/	4g\	.
4B/	4B\	8a/L 8cc	8ryy	.
.	.	8g/J 8b	8ryy	.
4G/	4G\	8f#/L 8a	8ryy	.
.	.	8g/J 8b	8ryy	.
=87	=87	=87	=87	=87
2d/	2D\	4cc/	4a\	.
.	.	4cc#X/	4g\	.
4d/	4D\	4dd/	4f#\	.
8d/	8F#\	8ccn/	8a\	.
8d/	8F#\	8cc/	8a\	.
=88	=88	=88	=88	=88
4d/	4G\	4b/	4g\	.
8d/	8d\	8b/	8g\	.
8d/	8d\	8b/	8g\	.
4B/	4B\	8a/L 8cc	8ryy	.
.	.	8g/J 8b	8ryy	.
4G/	4G\	8f#/L 8a	8ryy	.
.	.	8g/J 8b	8ryy	.
=89	=89	=89	=89	=89
4d/	4D\	4cc/	4a\	.
4d/	4D\	4cc#X/	4g\	.
2d/	4D\	4dd/	4f#\	.
.	4F#\	4ccn/	4a\	.
=90	=90	=90	=90	=90
4d/	4G\	4b/	4g\	.
!	!	!	!	!LO:DY:rj
8G/	8G\	8g/	8g\	ff
8G/	8G\	8g/	8g\	.
4G/	4G\	4g/	4g\	.
4G/	4G\	4g/	4g\	.
*v	*v	*	*	*
=91	=91	=91	=91
2..C\ 2..c 2..e	2..cc/	2..g\	.
8C\ 8c 8e	8cc/	8g\	.
=92	=92	=92	=92
*^	*	*	*
1G 1d	1GG;<	1b;>	1g	.
*v	*v	*	*	*
*	*v	*v	*
!!LO:LB:g=original
==	==	==
*-	*-	*-
!!!system-decoration: {(s1,s2)}
!!!RDF**kern: < = below
!!!RDF**kern: > = above
!!!ENC: Marta Chmielewska
!!!END: 2021-06-08
!!!ENC: Krzysztof Stępień
!!!END: 2021-05-26
